X:1
T:Rossini - La Danza Arranged for Piano & Ocarina 
T:Sam Rahbari
%%score 1 2 3
L:1/8
Q:1/4=228
M:6/8
K:E
V:1 treble nm="Ocarina"
V:2 treble nm="Piano"
V:3 bass nm="Piano"
V:1
 z2 z4 | z2 z4 | z2 z4 | z2 z4 | z2 z4 | z2 z4 | z2 z4 | z2 z4 | z2 z4 | z2 z4 | z2 z4 | z2 z4 | %12
 z2 z4 | z2 z4 | z2 z4 | z2 z4 | z2 z4 | z2 z4 | z2 z4 | z2 z4 | z2 z4 | z2 z4 | z2 z4 | z2 z4 | %24
 z2 z4 | z2 z4 | z2 z4 | z2 z4 | z2 z4 | z2 z4 | z2 z4 | z2 z4 | z2 z4 | z2 z4 | z2 z4 | z2 z4 | %36
 z2 z4 | z2 z4 | z2 z4 | z2 z4 | z2 z4 | z2 z4 | z2 z4 | z2 z4 | z2 z4 | z2 z4 | z2 z4 | z2 z4 | %48
 z2[Q:1/4=195] e2- e/-e/4 z/4 ^^c | ^B^^cB/4-B/8 z/8 z/ =B=cB/4-B/8 z/8 z/ | %50
 ABA/4-A/8 z/8 z/ ^^FAF/4-F/8 z/8 z/ | ^E-E/-E/4 z/4 ^e E-E/-E/4 z/4 E | %52
 E2- E/-E/4 z/4 e-e/-e/4 z/4 ^^c | ^B^^cB/4-B/8 z/8 z/ =B=cB/4-B/8 z/8 z/ | %54
 ABA/4-A/8 z/8 z/ B=cB/4-B/8 z/8 z/ | E-E/-E/4 z/4 e EFG/4-G/8 z/8 z/ | %56
 A-A/-A/4 z/4 z e-e/-e/4 z/4 ^^c | ^B^^cB/4-B/8 z/8 z/ =B=cB/4-B/8 z/8 z/ | %58
 ABA/4-A/8 z/8 z/ ^^FAF/4-F/8 z/8 z/ | ^E-E/-E/4 z/4 ^e E-E/-E/4 z/4 E | %60
 E2- E/-E/4 z/4 e-e/-e/4 z/4 ^^c | ^B^^cB/4-B/8 z/8 z/ =B=cB/4-B/8 z/8 z/ | %62
 ABA/4-A/8 z/8 z/ B=cB/4-B/8 z/8 z/ | E-E/-E/4 z/4 e EFG/4-G/8 z/8 z/ | A-A/-A/4 z/4 z4 | z2 z4 | %66
 z z2 B=c=d | =cBA GAB | A4- A2 | ^^F2- F ^E2- E/-E/4 z/4 | E-E/-E/4 z/4 z B=c=d | =cBA GAB | %72
 A-A/-A/4 z/4 z =c-c/-c/4 z/4 c | =c-c/-c/4 z/4 c c-c/-c/4 z/4 c | =c-c/-c/4 z/4 c c-c/-c/4 z/4 c | %75
 e-e/-e/4 z/4 e e^^c^B/4-B/8 z/8 z/ | ^^f2- f/-f/4 z/4 =d-d/-d/4 z/4 d | %77
 =d-d/-d/4 z/4 d d-d/-d/4 z/4 d | =f-f/-f/4 z/4 f f-f/-f/4 z/4 ^e | %79
 ^^F-F/-F/4 z/4 F FAB/4-B/8 z/8 z/ | =c2- c/-c/4 z/4 c-c/-c/4 z/4 c | %81
 =c-c/-c/4 z/4 c c-c/-c/4 z/4 c | =c-c/-c/4 z/4 c c-c/-c/4 z/4 c | %83
 e-e/-e/4 z/4 e e^^c^B/4-B/8 z/8 z/ | ^^f2- f/-f/4 z/4 ^^c-c/-c/4 z/4 =d | %85
 =d-d/-d/4 z/4 d d-d/-d/4 z/4 d | =f-f/-f/4 z/4 f f-f/-f/4 z/4 f | %87
 ^^F-F/-F/4 z/4 F FAB/4-B/8 z/8 z/ | =c-c/-c/4 z/4 z _B-B/-B/4 z/4 B | %89
 =f2- f/-f/4 z/4 _B-B/-B/4 z/4 B | =f2- f/-f/4 z/4 A_BA | GB^^c/4-c/8 z/8 z/ ^e=ec/4-c/8 z/8 z/ | %92
 ^B=BA/4-A/8 z/8 z/ _B-B/-B/4 z/4 B | =f2- f/-f/4 z/4 _B-B/-B/4 z/4 B | %94
 =f2- f/-f/4 z/4 A_BA/4-A/8 z/8 z/ | G=fe/4-e/8 z/8 z/ =d=cB/4-B/8 z/8 z/ | %96
 A-A/-A/4 z/4 z A-A/-A/4 z/4 A | A-A/-A/4 z/4 A A-A/-A/4 z/4 A | A-A/-A/4 z/4 A A-A/-A/4 z/4 A | %99
 A-A/-A/4 z/4 A A-A/-A/4 z/4 A | e4- e2- | e=d=c/4-c/8 z/8 z/ BcB/4-B/8 z/8 z/ | %102
 A-A/-A/4 z/4 z A-A/-A/4 z/4 A | A-A/-A/4 z/4 A A-A/-A/4 z/4 A | A-A/-A/4 z/4 A A-A/-A/4 z/4 A | %105
 A-A/-A/4 z/4 A A-A/-A/4 z/4 A | e4- e2- | e=d=c/4-c/8 z/8 z/ BcB/4-B/8 z/8 z/ | A4- A-A/ z/ | %109
 a/4-a/8 z/8 z/ z A/4-A/8 z/8 z/ A/4-A/8 z/8 z/ z A/4-A/8 z/8 z/ | e4- e2- | %111
 e^^c/4-c/8 z/8 z/ ^c/4-c/8 z/8 z/ ^^cfe/4-e/8 z/8 z/ | e2- e/-e/4 z/4 c z2 | %113
 e/4a/ z/4 z A/4-A/8 z/8 z/ A/4-A/8 z/8 z/ z A/4-A/8 z/8 z/ | e4- e2- | %115
 ef/4-f/8 z/8 z/ e/4-e/8 z/8 z/ d=cG/4-G/8 z/8 z/ | c2- c/-c/4 z/4 e2- e/-e/4 z/4 | %117
 a/4-a/8 z/8 z/ z A/4-A/8 z/8 z/ A/4-A/8 z/8 z/ z A/4-A/8 z/8 z/ | e4- e2- | %119
 e^^c/4-c/8 z/8 z/ ^c/4-c/8 z/8 z/ ^^cfe/4-e/8 z/8 z/ | e2- e/-e/4 z/4 c z2 | %121
 e/4a/ z/4 z A/4-A/8 z/8 z/ A/4-A/8 z/8 z/ z A/4-A/8 z/8 z/ | e4- e2- | %123
 e^^c/4-c/8 z/8 z/ ^c/4-c/8 z/8 z/ B/4-B/8 z/8 z/ ^^c/4-c/8 z/8 z/ ^c/4-c/8 z/8 z/ | %124
 A-A/-A/4 z/4 z4 | z2 z4 | z2 z4 | z2 z4 | z2 z4 | z2 z4 | z2 z4 | z2 z4 | z2 e2- e/-e/4 z/4 ^^c | %133
 ^B^^cB/4-B/8 z/8 z/ =B=cB/4-B/8 z/8 z/ | ABA/4-A/8 z/8 z/ ^^FAF/4-F/8 z/8 z/ | %135
 ^E-E/-E/4 z/4 ^e E-E/-E/4 z/4 E | E2- E/-E/4 z/4 e-e/-e/4 z/4 ^^c | %137
 ^B^^cB/4-B/8 z/8 z/ =B=cB/4-B/8 z/8 z/ | ABA/4-A/8 z/8 z/ B=cB/4-B/8 z/8 z/ | %139
 E-E/-E/4 z/4 e EFG/4-G/8 z/8 z/ | A-A/-A/4 z/4 z e-e/-e/4 z/4 ^^c | %141
 ^B^^cB/4-B/8 z/8 z/ =B=cB/4-B/8 z/8 z/ | ABA/4-A/8 z/8 z/ ^^FAF/4-F/8 z/8 z/ | %143
 ^E-E/-E/4 z/4 ^e E-E/-E/4 z/4 E | E2- E/-E/4 z/4 e-e/-e/4 z/4 ^^c | %145
 ^B^^cB/4-B/8 z/8 z/ =B=cB/4-B/8 z/8 z/ | ABA/4-A/8 z/8 z/ B=cB/4-B/8 z/8 z/ | %147
 E-E/-E/4 z/4 e EFG/4-G/8 z/8 z/ | A-A/-A/4 z/4 z4 | z2 z4 | z z2 B^B^^c | ^B=BA GAB | A4- A2 | %153
 ^^F2- F ^E2- E/-E/4 z/4 | E-E/-E/4 z/4 z B=c=d | =cBA GAB | A-A/-A/4 z/4 z =c-c/-c/4 z/4 c | %157
 =c-c/-c/4 z/4 c c-c/-c/4 z/4 c | =c-c/-c/4 z/4 c c-c/-c/4 z/4 c | %159
 e-e/-e/4 z/4 e e^^c^B/4-B/8 z/8 z/ | ^^f2- f/-f/4 z/4 ^^c-c/-c/4 z/4 =d | %161
 =d-d/-d/4 z/4 d d-d/-d/4 z/4 d | =f-f/-f/4 z/4 f f-f/-f/4 z/4 f | %163
 ^^F-F/-F/4 z/4 F FAB/4-B/8 z/8 z/ | ^B2- B/-B/4 z/4 =c-c/-c/4 z/4 c | %165
 =c-c/-c/4 z/4 c c-c/-c/4 z/4 c | =c-c/-c/4 z/4 c c-c/-c/4 z/4 c | %167
 e-e/-e/4 z/4 e e^^c^B/4-B/8 z/8 z/ | ^^f2- f/-f/4 z/4 ^^c-c/-c/4 z/4 c | %169
 =d-d/-d/4 z/4 d d-d/-d/4 z/4 d | =f-f/-f/4 z/4 f ^e-e/-e/4 z/4 e | %171
 ^^F-F/-F/4 z/4 F FAB/4-B/8 z/8 z/ | =c-c/-c/4 z/4 z ^A-A/-A/4 z/4 _B | %173
 =f2- f/-f/4 z/4 _B-B/-B/4 z/4 B | =f2- f/-f/4 z/4 A_BA | GB^^c/4-c/8 z/8 z/ ^e=ec/4-c/8 z/8 z/ | %176
 ^B=BA/4-A/8 z/8 z/ ^A-A/-A/4 z/4 _B | =f2- f/-f/4 z/4 _B-B/-B/4 z/4 B | %178
 =f2- f/-f/4 z/4 A_BA/4-A/8 z/8 z/ | G=fe/4-e/8 z/8 z/ =d=cB/4-B/8 z/8 z/ | %180
 A-A/-A/4 z/4 z A-A/-A/4 z/4 A | A-A/-A/4 z/4 A A-A/-A/4 z/4 A | A-A/-A/4 z/4 A A-A/-A/4 z/4 A | %183
 A-A/-A/4 z/4 A A-A/-A/4 z/4 A | e4- e2- | e=d=c/4-c/8 z/8 z/ BcB/4-B/8 z/8 z/ | %186
 A-A/-A/4 z/4 z A-A/-A/4 z/4 A | A-A/-A/4 z/4 A A-A/-A/4 z/4 A | A-A/-A/4 z/4 A A-A/-A/4 z/4 A | %189
 A-A/-A/4 z/4 A A-A/-A/4 z/4 A | e4- e2- | e=d=c/4-c/8 z/8 z/ BcB/4-B/8 z/8 z/ | A4- A-A/ z/ | %193
 a/4-a/8 z/8 z/ z A/4-A/8 z/8 z/ A/4-A/8 z/8 z/ z A/4-A/8 z/8 z/ | e4- e2- | %195
 e^^c/4-c/8 z/8 z/ ^c/4-c/8 z/8 z/ ^^cfe/4-e/8 z/8 z/ | e2- e/-e/4 z/4 c z2 | %197
 e/4a/ z/4 z A/4-A/8 z/8 z/ A/4-A/8 z/8 z/ z A/4-A/8 z/8 z/ | e4- e2- | %199
 ef/4-f/8 z/8 z/ e/4-e/8 z/8 z/ d=cG/4-G/8 z/8 z/ | c2- c/-c/4 z/4 e2- e/-e/4 z/4 | %201
 a/4-a/8 z/8 z/ z A/4-A/8 z/8 z/ A/4-A/8 z/8 z/ z A/4-A/8 z/8 z/ | e4- e2- | %203
 e^^c/4-c/8 z/8 z/ ^c/4-c/8 z/8 z/ ^^cfe/4-e/8 z/8 z/ | e2- e/-e/4 z/4 c z2 | %205
 e/4a/ z/4 z A/4-A/8 z/8 z/ A/4-A/8 z/8 z/ z A/4-A/8 z/8 z/ | e4- e2- | %207
 e^^c/4-c/8 z/8 z/ ^c/4-c/8 z/8 z/ B/4-B/8 z/8 z/ ^^c/4-c/8 z/8 z/ ^c/4-c/8 z/8 z/ | a4- a2- | %209
 a4- a2- | a4- a2- | a4- a2- | a4- a2- | a4- a2- | a4- a2- | a4- a2- | a4- a2- | a4- a2- | %218
 a4- a2- | a-a/-a/4 z/4 z4 |] %220
V:2
 z z2 d'e'^^c' | ^b=ba b/4a/-a/4ga | ^ab=d/4-d/8 z/8 z/ =fe=c/4-c/8 z/8 z/ | %3
 =fe^^c/4-c/8 z/8 z/ ^e=e=d/4-d/8 z/8 z/ | =cBA d'e'=d' | =c'ba b/4a/-a/4ga | %6
 ^ab^^c/4-c/8 z/8 z/ ^e=e=c/4-c/8 z/8 z/ | =fe^^c/4-c/8 z/8 z/ ^e=ec/4-c/8 z/8 z/ | ^B=BA aef | %9
 ^^f^^ce ^e=c=d | ede B^B^^c | ^B=BA GAB | A=ce aef | ^^f^^ce ^e=c=d | ede B^B^^c | ^B=BA GAB | %16
 AGA _b=c'^a | ^e^^fe ^^c=ec | ^A=c_B =ABA | GB^^c ^e=ec | ^B=BA _b=c'^a | ^e^^fe ^^c=ec | %22
 ^A=c_B =ABA | G=fe =d^B=B | A=cA =FAF | EAE DAD | EAE =FAF | EAE DAD | %28
 E/4-E/8 z/8 z/ A/4-A/8 z/8 z/ =c/4-c/8 z/8 z/ e/4-e/8 z/8 z/ a/4-a/8 z/8 z/ =c'/4-c'/8 z/8 z/ | %29
 e' z2 [B^^cg]-[Bcg]/-[Bcg]/4 z/4 z | [A=cfa]-[Acfa]/-[Acfa]/4 z/4 z FAF | EAE DAD | EAE FAF | %33
 EAE DAD | %34
 E/4-E/8 z/8 z/ A/4-A/8 z/8 z/ =c/4-c/8 z/8 z/ e/4-e/8 z/8 z/ a/4-a/8 z/8 z/ =c'/4-c'/8 z/8 z/ | %35
 e' z2 [B=dg]-[Bdg]/-[Bdg]/4 z/4 z | [A=cea]-[Acea]/-[Acea]/4 z/4 z b^b^^c' | e'^^c'^b =b=c'=d' | %38
 ^b=ba ga=f | e^^c^B =B=c=d | ^B=BA B^B^^c | e^^c^B =B=c=d | ^B=BA GA=F | E^^C^B, CB,=B, | %44
 A,=CE A/4-A/8 z/8 z/ A/4-A/8 z/8 z/ A/4-A/8 z/8 z/ | %45
 A=ce a/4-a/8 z/8 z/ a/4-a/8 z/8 z/ a/4-a/8 z/8 z/ | %46
 a=c'e' a'/4-a'/8 z/8 z/ a'/4-a'/8 z/8 z/ a'/4-a'/8 z/8 z/ | %47
 a'/4-a'/8 z/8 z/ a'/4-a'/8 z/8 z/ a'/4-a'/8 z/8 z/ a'/4-a'/8 z/8 z/ a'/4-a'/8 z/8 z/ a'/4-a'/8 z/8 z/ | %48
 a'/4b'/4^b'/4=d''/4e'' z4 | =CEA B,^^CG | ^B,EA CE=G | A,=C=F A,^B,^E | ^^F,^B,E G,=DE | %53
 A,=CE B,EB | =C^^CA A,B,^E | G,^^CE B,CE | =CEA z z2 | =CEA B,^^CG | ^B,EA CE=G | A,=C=F A,^B,^E | %60
 ^^F,^B,E G,=DE | A,=CE B,EB | =C^^CA A,B,^E | G,^^CE B,CE | =C z2 aef | ^^f^^ce ^e^Bc | %66
 ede B=c=d | =cBA GAB | A=ce aef | ^^f^^ce ^e^Bc | ede B=c=d | =cBA GAB | %72
 A-A/-A/4 z/4 z E,/4-E,/8 z/8 z/ ^^F,/4-F,/8 z/8 z/ ^B,/4-B,/8 z/8 z/ | %73
 E,/4-E,/8 z/8 z/ ^^F,/4-F,/8 z/8 z/ ^B,/4-B,/8 z/8 z/ E,/4-E,/8 z/8 z/ F,/4-F,/8 z/8 z/ B,/4-B,/8 z/8 z/ | %74
 E,/4-E,/8 z/8 z/ ^^F,/4-F,/8 z/8 z/ ^B,/4-B,/8 z/8 z/ E,/4-E,/8 z/8 z/ F,/4-F,/8 z/8 z/ =C/4-C/8 z/8 z/ | %75
 F,/4-F,/8 z/8 z/ A,/4-A,/8 z/8 z/ =C/4-C/8 z/8 z/ F,/4-F,/8 z/8 z/ A,/4-A,/8 z/8 z/ C/4-C/8 z/8 z/ | %76
 B,/4-B,/8 z/8 z/ ^^C/4-C/8 z/8 z/ ^^F/4-F/8 z/8 z/ B,/4-B,/8 z/8 z/ C/4-C/8 z/8 z/ F/4-F/8 z/8 z/ | %77
 ^A,/4-A,/8 z/8 z/ ^^C/4-C/8 z/8 z/ ^^F/4-F/8 z/8 z/ A,/4-A,/8 z/8 z/ C/4-C/8 z/8 z/ F/4-F/8 z/8 z/ | %78
 A,/4-A,/8 z/8 z/ ^^C/4-C/8 z/8 z/ ^E/4-E/8 z/8 z/ A,/4-A,/8 z/8 z/ C/4-C/8 z/8 z/ E/4-E/8 z/8 z/ | %79
 B,/4-B,/8 z/8 z/ ^^C/4-C/8 z/8 z/ ^E/4-E/8 z/8 z/ B,/4-B,/8 z/8 z/ C/4-C/8 z/8 z/ E/4-E/8 z/8 z/ | %80
 ^^F,/4-F,/8 z/8 z/ ^B,/4-B,/8 z/8 z/ E/4-E/8 z/8 z/ E,/4-E,/8 z/8 z/ F,/4-F,/8 z/8 z/ B,/4-B,/8 z/8 z/ | %81
 E,/4-E,/8 z/8 z/ ^^F,/4-F,/8 z/8 z/ ^B,/4-B,/8 z/8 z/ E,/4-E,/8 z/8 z/ F,/4-F,/8 z/8 z/ B,/4-B,/8 z/8 z/ | %82
 E,/4-E,/8 z/8 z/ ^^F,/4-F,/8 z/8 z/ ^B,/4-B,/8 z/8 z/ E,/4-E,/8 z/8 z/ F,/4-F,/8 z/8 z/ =C/4-C/8 z/8 z/ | %83
 F,/4-F,/8 z/8 z/ A,/4-A,/8 z/8 z/ =C/4-C/8 z/8 z/ F,/4-F,/8 z/8 z/ A,/4-A,/8 z/8 z/ C/4-C/8 z/8 z/ | %84
 B,/4-B,/8 z/8 z/ ^^C/4-C/8 z/8 z/ ^^F/4-F/8 z/8 z/ B,/4-B,/8 z/8 z/ C/4-C/8 z/8 z/ F/4-F/8 z/8 z/ | %85
 ^A,/4-A,/8 z/8 z/ ^^C/4-C/8 z/8 z/ ^^F/4-F/8 z/8 z/ A,/4-A,/8 z/8 z/ C/4-C/8 z/8 z/ F/4-F/8 z/8 z/ | %86
 A,/4-A,/8 z/8 z/ ^^C/4-C/8 z/8 z/ ^E/4-E/8 z/8 z/ A,/4-A,/8 z/8 z/ C/4-C/8 z/8 z/ E/4-E/8 z/8 z/ | %87
 B,/4-B,/8 z/8 z/ ^^C/4-C/8 z/8 z/ ^E/4-E/8 z/8 z/ B,/4-B,/8 z/8 z/ C/4-C/8 z/8 z/ E/4-E/8 z/8 z/ | %88
 E z2 ^a^ba | ^e^^fe ^^c=ec | ^A=c_B =ABA | GB^^c ^e=ec | ^B=BA _b=c'^a | ^e^^fe ^^c=ec | %94
 ^A=c_B =ABA | G=fe =d^B=B | A=cA =FAF | EAE DAD | EAE =FAF | EAE DAD | %100
 E/4-E/8 z/8 z/ A/4-A/8 z/8 z/ =c/4-c/8 z/8 z/ e/4-e/8 z/8 z/ a/4-a/8 z/8 z/ =c'/4-c'/8 z/8 z/ | %101
 e' z2 [B^^cg]-[Bcg]/-[Bcg]/4 z/4 z | [A=cfa]-[Acfa]/-[Acfa]/4 z/4 z FAF | EAE DAD | EAE FAF | %105
 EAE DAD | %106
 E/4-E/8 z/8 z/ A/4-A/8 z/8 z/ =c/4-c/8 z/8 z/ e/4-e/8 z/8 z/ a/4-a/8 z/8 z/ =c'/4-c'/8 z/8 z/ | %107
 e'/4-e'/8 z/8 z/ z2 [B=deg]-[Bdeg]/-[Bdeg]/4 z/4 z | [cea]AC EAC | EAC EAC | EAC EAC | EG^^C EGC | %112
 EAC EAC | EAC EAC | E^AC E=AC | EGC FG=C | EGC EG=D | EAC EAC | EAC EAC | EG^^C EGC | EAC EAC | %121
 EAC EAC | %122
 E/4-E/8 z/8 z/ c/4-c/8 z/8 z/ A/4-A/8 z/8 z/ E/4-E/8 z/8 z/ C/4-C/8 z/8 z/ A,/4-A,/8 z/8 z/ | %123
 z z2 [GBe] z2 | A z2 d'e'=d' | ^b=ba b/4a/-a/4ga | ^ab=d/4-d/8 z/8 z/ =fe=c/4-c/8 z/8 z/ | %127
 =fe^^c/4-c/8 z/8 z/ ^e=e=d/4-d/8 z/8 z/ | =cBA d'e'=d' | =c'ba b/4a/-a/4ga | %130
 ^ab^^c/4-c/8 z/8 z/ ^e=e=c/4-c/8 z/8 z/ | =fe^^c/4-c/8 z/8 z/ c^B=B/4-B/8 z/8 z/ | A z z4 | %133
 =CEA B,=DG | ^B,EA CE^^F | A,=C=F A,CF | ^^F,^B,E G,^^CE | A,=CE B,EB | ^B,^^CA A,=B,^E | %139
 G,^^CE B,CE | =CEA z z2 | =CEA B,=DG | ^B,EA CE^^F | A,=C=F A,CF | ^^F,^B,E G,^^CE | A,=CE B,EB | %146
 ^B,^^CA A,=B,^E | G,^^CE B,CE | =C z2 aef | ^^f^^ce ^e^Bc | ede B=c=d | =cBA GAB | A=ce aef | %153
 ^^f^^ce ^e^Bc | ede B=c=d | =cBA GAB | %156
 A-A/-A/4 z/4 z E,/4-E,/8 z/8 z/ ^^F,/4-F,/8 z/8 z/ ^B,/4-B,/8 z/8 z/ | %157
 E,/4-E,/8 z/8 z/ ^^F,/4-F,/8 z/8 z/ ^B,/4-B,/8 z/8 z/ E,/4-E,/8 z/8 z/ F,/4-F,/8 z/8 z/ B,/4-B,/8 z/8 z/ | %158
 E,/4-E,/8 z/8 z/ ^^F,/4-F,/8 z/8 z/ ^B,/4-B,/8 z/8 z/ E,/4-E,/8 z/8 z/ F,/4-F,/8 z/8 z/ B,/4-B,/8 z/8 z/ | %159
 F,/4-F,/8 z/8 z/ A,/4-A,/8 z/8 z/ =C/4-C/8 z/8 z/ F,/4-F,/8 z/8 z/ A,/4-A,/8 z/8 z/ C/4-C/8 z/8 z/ | %160
 B,/4-B,/8 z/8 z/ ^^C/4-C/8 z/8 z/ ^^F/4-F/8 z/8 z/ B,/4-B,/8 z/8 z/ C/4-C/8 z/8 z/ F/4-F/8 z/8 z/ | %161
 ^A,/4-A,/8 z/8 z/ ^^C/4-C/8 z/8 z/ ^^F/4-F/8 z/8 z/ A,/4-A,/8 z/8 z/ C/4-C/8 z/8 z/ F/4-F/8 z/8 z/ | %162
 A,/4-A,/8 z/8 z/ ^^C/4-C/8 z/8 z/ ^E/4-E/8 z/8 z/ A,/4-A,/8 z/8 z/ C/4-C/8 z/8 z/ E/4-E/8 z/8 z/ | %163
 B,/4-B,/8 z/8 z/ ^^C/4-C/8 z/8 z/ ^E/4-E/8 z/8 z/ B,/4-B,/8 z/8 z/ C/4-C/8 z/8 z/ E/4-E/8 z/8 z/ | %164
 ^^F,/4-F,/8 z/8 z/ ^B,/4-B,/8 z/8 z/ E/4-E/8 z/8 z/ E,/4-E,/8 z/8 z/ F,/4-F,/8 z/8 z/ B,/4-B,/8 z/8 z/ | %165
 E,/4-E,/8 z/8 z/ ^^F,/4-F,/8 z/8 z/ ^B,/4-B,/8 z/8 z/ E,/4-E,/8 z/8 z/ F,/4-F,/8 z/8 z/ B,/4-B,/8 z/8 z/ | %166
 E,/4-E,/8 z/8 z/ ^^F,/4-F,/8 z/8 z/ ^B,/4-B,/8 z/8 z/ E,/4-E,/8 z/8 z/ F,/4-F,/8 z/8 z/ B,/4-B,/8 z/8 z/ | %167
 F,/4-F,/8 z/8 z/ A,/4-A,/8 z/8 z/ =C/4-C/8 z/8 z/ F,/4-F,/8 z/8 z/ A,/4-A,/8 z/8 z/ C/4-C/8 z/8 z/ | %168
 B,/4-B,/8 z/8 z/ ^^C/4-C/8 z/8 z/ ^^F/4-F/8 z/8 z/ B,/4-B,/8 z/8 z/ C/4-C/8 z/8 z/ F/4-F/8 z/8 z/ | %169
 ^A,/4-A,/8 z/8 z/ ^^C/4-C/8 z/8 z/ ^^F/4-F/8 z/8 z/ A,/4-A,/8 z/8 z/ C/4-C/8 z/8 z/ F/4-F/8 z/8 z/ | %170
 A,/4-A,/8 z/8 z/ ^^C/4-C/8 z/8 z/ ^E/4-E/8 z/8 z/ A,/4-A,/8 z/8 z/ C/4-C/8 z/8 z/ E/4-E/8 z/8 z/ | %171
 B,/4-B,/8 z/8 z/ ^^C/4-C/8 z/8 z/ ^E/4-E/8 z/8 z/ B,/4-B,/8 z/8 z/ C/4-C/8 z/8 z/ E/4-E/8 z/8 z/ | %172
 E z2 ^a^ba | ^e^^fe ^^c=ec | ^A=c_B =ABA | GB^^c ^e=ec | ^B=BA _b=c'^a | ^e^^fe ^^c=ec | %178
 ^A=c_B =ABA | G=fe =d=cB | A=cA =FAF | EAE DAD | EAE =FAF | EAE DAD | %184
 E/4-E/8 z/8 z/ A/4-A/8 z/8 z/ =c/4-c/8 z/8 z/ e/4-e/8 z/8 z/ a/4-a/8 z/8 z/ =c'/4-c'/8 z/8 z/ | %185
 e' z2 [B^^cg]-[Bcg]/-[Bcg]/4 z/4 z | [A=cfa]-[Acfa]/-[Acfa]/4 z/4 z FAF | EAE DAD | EAE FAF | %189
 EAE DAD | %190
 E/4-E/8 z/8 z/ A/4-A/8 z/8 z/ =c/4-c/8 z/8 z/ e/4-e/8 z/8 z/ a/4-a/8 z/8 z/ =c'/4-c'/8 z/8 z/ | %191
 e'/4-e'/8 z/8 z/ z2 [B=deg]-[Bdeg]/-[Bdeg]/4 z/4 z | [cea]AC EAC | EAC EAC | EAC EAC | EG^^C EGC | %196
 EAC EAC | EAC EAC | E^AC E=AC | EGC FG=C | EGC EG^^C | EAC EAC | EAC EAC | EG^^C EGC | EAC EAC | %205
 EAC EAC | %206
 E/4-E/8 z/8 z/ c/4-c/8 z/8 z/ A/4-A/8 z/8 z/ E/4-E/8 z/8 z/ C/4-C/8 z/8 z/ A,/4-A,/8 z/8 z/ | %207
 z z2 [GBe] z2 | A z2 d'e'=d' | =c'ba b/4a/-a/4ga | ^ab^^c/4-c/8 z/8 z/ ^e=e=c/4-c/8 z/8 z/ | %211
 =fe^^c/4-c/8 z/8 z/ ^e=ec/4-c/8 z/8 z/ | ^B=BA d'e'=d' | =c'ba b/4a/-a/4ga | %214
 ^ab^^c/4-c/8 z/8 z/ ^e=e=c/4-c/8 z/8 z/ | =fe^^c/4-c/8 z/8 z/ c^B=B/4-B/8 z/8 z/ | %216
 A=ce a/4-a/8 z/8 z/ a/4-a/8 z/8 z/ a/4-a/8 z/8 z/ | %217
 a=c'e' a'/4-a'/8 z/8 z/ a'/4-a'/8 z/8 z/ a'/4-a'/8 z/8 z/ | %218
 a'/4-a'/8 z/8 z/ a'/4-a'/8 z/8 z/ a'/4-a'/8 z/8 z/ a'/4-a'/8 z/8 z/ a'/4-a'/8 z/8 z/ a'/4-a'/8 z/8 z/ | %219
 a'/4b'/4=c''/4=d''/4e'' z4 |] %220
V:3
 A,=CE E,CE | A,=CE E,CE | G,B,E E,B,E | G,B,E E,B,E | A,=CE E,CE | A,=CE E,CE | G,B,E E,B,E | %7
 G,B,E E,B,E | A,=CE A,^B,^^C | ^^F,^A,^B, =F,=A,=B, | E,G,B, E,G,B, | E,A,=C E,B,^^C | %12
 E,A,=C A,^B,^^C | ^^F,^A,^B, =F,=A,=B, | E,G,B, E,G,B, | E,A,=C E,B,^^C | ^B,EB, ^^C,^A,^^C | %17
 =F,^A,=D =D,A,D | =F,^A,=D ^^C,A,^^C | E,B,^^C G,B,E | A,=CE ^^C,^A,^^C | =F,^A,=D =D,A,D | %22
 =F,^A,=D ^^C,A,^^C | E,B,^^C G,B,E | A,=CA, =F,A,F, | E,A,E, D,A,D, | E,A,E, =F,A,F, | %27
 E,A,E, D,A,D, | %28
 E,/4-E,/8 z/8 z/ A,/4-A,/8 z/8 z/ =C/4-C/8 z/8 z/ E/4-E/8 z/8 z/ A/4-A/8 z/8 z/ =c/4-c/8 z/8 z/ | %29
 e/4-e/8 z/8 z/ z2 [E,E]-[E,E]/-[E,E]/4 z/4 z | [D,D]-[D,D]/-[D,D]/4 z/4 z F,A,F, | E,A,E, D,A,D, | %32
 E,A,E, F,A,F, | E,A,E, D,A,D, | %34
 E,/4-E,/8 z/8 z/ A,/4-A,/8 z/8 z/ =C/4-C/8 z/8 z/ E/4-E/8 z/8 z/ A/4-A/8 z/8 z/ =c/4-c/8 z/8 z/ | %35
 e/4-e/8 z/8 z/ z2 [E,E]-[E,E]/-[E,E]/4 z/4 z | A,,E,A, A,,E,G, | A,,E,A, A,,E,G, | %38
 A,,E,A, =D,=F,A, | E,A,=C E,G,B, | A,=CE E,G,E | A,=CE E,G,E | A,=CE ^^C,=F,A, | %43
 =C,E,A, B,,^^C,G, | A,, z z4 | [A,,E,=C] z z4 | [A,,E,=C] z z4 | %47
 [A,=CE]2- [A,CE]/-[A,CE]/4 z/4 [A,CE]2- [A,CE]/-[A,CE]/4 z/4 | [A,=CE]-[A,CE]/-[A,CE]/4 z/4 z4 | %49
 [A,,E,]4- [A,,E,]2- | [A,,E,]4- [A,,E,]-[A,,E,]/ z/ | %51
 [=F,,=F,]2- [F,,F,]/-[F,,F,]/4 z/4 A,,2- A,,/-A,,/4 z/4 | %52
 =C,2- C,/-C,/4 z/4 B,,2- B,,/-B,,/4 z/4 | A,,2- A,, ^^F,,2- F,,/-F,,/4 z/4 | %54
 ^E,,2- E,, ^^C,,2- C,,/-C,,/4 z/4 | E,,2- E,, E,2- E,/-E,/4 z/4 | A,, z2 E,2- E,- | %57
 [A,,E,]4- [A,,E,]2- | [A,,E,]4- [A,,E,]-[A,,E,]/ z/ | %59
 [=F,,=F,]2- [F,,F,]/-[F,,F,]/4 z/4 A,,2- A,,/-A,,/4 z/4 | %60
 =C,2- C,/-C,/4 z/4 B,,2- B,,/-B,,/4 z/4 | A,,2- A,, ^^F,,2- F,,/-F,,/4 z/4 | %62
 ^E,,2- E,, ^^C,,2- C,,/-C,,/4 z/4 | E,,2- E,, E,2- E,/-E,/4 z/4 | A,,=C,E, A,^B,^^C | %65
 ^^F,^A,^B, =F,=A,=B, | E,G,B, E,G,B, | E,A,=C E,B,^^C | E,A,=C A,^B,^^C | ^^F,^A,^B, =F,=A,=B, | %70
 E,G,B, E,G,B, | E,A,=C E,B,^^C | [A,=C]-[A,C]/-[A,C]/4 z/4 z =C, z2 | =C,, z2 =C, z2 | %74
 A,,, z2 A,, z2 | ^^C,, z2 ^^C, z2 | ^^F,,2- F,, ^^F, z2 | ^^F,,2- F,, =G, z2 | =D,,2- D,, =D, z2 | %79
 =G,,2- G,, =G, z2 | =C, z2 ^B,, z2 | ^B,,, z2 ^B,, z2 | A,,, z2 A,, z2 | ^^C,, z2 ^^C, z2 | %84
 ^^F,,2- F,, ^^F, z2 | =G,,2- G,, =G, z2 | =D,,2- D,, =D, z2 | =G,,2- G,, =G, z2 | %88
 =C,=G,=C =D,^A,=D | =F,^A,=D =D,A,D | =F,^A,=D ^^C,A,^^C | E,B,^^C G,B,E | A,=CE ^^C,^A,^^C | %93
 =F,^A,=D =D,A,D | =F,^A,=D ^^C,A,^^C | E,B,^^C G,B,E | A,=CA, =F,A,F, | E,A,E, D,A,D, | %98
 E,A,E, =F,A,F, | E,A,E, D,A,D, | %100
 E,/4-E,/8 z/8 z/ A,/4-A,/8 z/8 z/ =C/4-C/8 z/8 z/ E/4-E/8 z/8 z/ A/4-A/8 z/8 z/ =c/4-c/8 z/8 z/ | %101
 e/4-e/8 z/8 z/ z2 [E,E]-[E,E]/-[E,E]/4 z/4 z | [D,D]-[D,D]/-[D,D]/4 z/4 z F,A,F, | E,A,E, D,A,D, | %104
 E,A,E, F,A,F, | E,A,E, D,A,D, | %106
 E,/4-E,/8 z/8 z/ A,/4-A,/8 z/8 z/ =C/4-C/8 z/8 z/ E/4-E/8 z/8 z/ A/4-A/8 z/8 z/ =c/4-c/8 z/8 z/ | %107
 e/4-e/8 z/8 z/ z2 [E,E]-[E,E]/-[E,E]/4 z/4 z | [A,,A,]E,A, A,,E,A, | A,,E,A, A,,E,A, | %110
 A,,E,A, A,,E,A, | A,,E,B, A,,E,B, | A,,E,A, A,,E,A, | A,,E,A, A,,E,A, | F,,C,F, ^^F,,C,^^F, | %115
 G,,E,G, G,,D,G, | [C,G,]2- [C,G,]/-[C,G,]/4 z/4 [E,,E,]2- [E,,E,]/-[E,,E,]/4 z/4 | %117
 [A,,,A,,]E,A, A,,E,A, | A,,E,A, A,,E,A, | A,,E,B, A,,E,B, | A,,E,A, A,,E,A, | A,,E,A, A,,E,A, | %122
 A,,/4-A,,/8 z/8 z/ C/4-C/8 z/8 z/ A,/4-A,/8 z/8 z/ E,/4-E,/8 z/8 z/ C,/4-C,/8 z/8 z/ A,,/4-A,,/8 z/8 z/ | %123
 [E,,E,] z2 [E,=D] z2 | A,=CE E,CE | A,=CE E,CE | G,B,E E,B,E | G,B,E E,B,E | A,=CE E,CE | %129
 A,=CE E,CE | G,B,E E,B,E | G,B,E E,B,E | [A,=C] z z4 | [A,,E,]4- [A,,E,]2- | %134
 [A,,E,]4- [A,,E,]-[A,,E,]/ z/ | [=F,,=F,]2- [F,,F,]/-[F,,F,]/4 z/4 A,,2- A,,/-A,,/4 z/4 | %136
 =C,2- C,/-C,/4 z/4 B,,2- B,,/-B,,/4 z/4 | A,,2- A,, ^^F,,2- F,,/-F,,/4 z/4 | %138
 ^E,,2- E,, ^^C,,2- C,,/-C,,/4 z/4 | E,,2- E,, E,2- E,/-E,/4 z/4 | A,, z2 E,2- E,- | %141
 [A,,E,]4- [A,,E,]2- | [A,,E,]4- [A,,E,]-[A,,E,]/ z/ | %143
 [=F,,=F,]2- [F,,F,]/-[F,,F,]/4 z/4 A,,2- A,,/-A,,/4 z/4 | %144
 =C,2- C,/-C,/4 z/4 B,,2- B,,/-B,,/4 z/4 | A,,2- A,, ^^F,,2- F,,/-F,,/4 z/4 | %146
 ^E,,2- E,, ^^C,,2- C,,/-C,,/4 z/4 | E,,2- E,, E,2- E,/-E,/4 z/4 | A,,=C,E, A,^B,^^C | %149
 ^^F,^A,^B, ^E,=A,=B, | E,G,B, E,G,B, | E,A,=C E,B,=D | E,A,=C A,^B,^^C | ^^F,^A,^B, ^E,=A,=B, | %154
 E,G,B, E,G,B, | E,A,=C E,B,^^C | [A,=C]-[A,C]/-[A,C]/4 z/4 z =C, z2 | =C,, z2 =C, z2 | %158
 A,,, z2 A,, z2 | ^^C,, z2 ^^C, z2 | ^^F,,2- F,, =G, z2 | =G,,2- G,, =G, z2 | =D,,2- D,, =D, z2 | %163
 =G,,2- G,, ^^F, z2 | ^B,, z2 B,, z2 | ^B,,, z2 ^B,, z2 | A,,, z2 A,, z2 | ^^C,, z2 ^^C, z2 | %168
 ^^F,,2- F,, ^^F, z2 | ^^F,,2- F,, =G, z2 | =D,,2- D,, =D, z2 | =G,,2- G,, =G, z2 | %172
 =C,=G,=C =D,^A,=D | =F,^A,=D =D,A,D | =F,^A,^^C ^^C,A,C | E,B,^^C G,B,E | A,=CE ^^C,^A,^^C | %177
 ^E,^A,=D =D,A,D | =F,^A,^^C ^^C,A,C | E,B,^^C G,B,E | A,=CA, =F,A,F, | E,A,E, D,A,D, | %182
 E,A,E, =F,A,F, | E,A,E, D,A,D, | %184
 E,/4-E,/8 z/8 z/ A,/4-A,/8 z/8 z/ =C/4-C/8 z/8 z/ E/4-E/8 z/8 z/ A/4-A/8 z/8 z/ =c/4-c/8 z/8 z/ | %185
 e/4-e/8 z/8 z/ z2 [E,E]-[E,E]/-[E,E]/4 z/4 z | [D,D]-[D,D]/-[D,D]/4 z/4 z F,A,F, | E,A,E, D,A,D, | %188
 E,A,E, F,A,F, | E,A,E, D,A,D, | %190
 E,/4-E,/8 z/8 z/ A,/4-A,/8 z/8 z/ =C/4-C/8 z/8 z/ E/4-E/8 z/8 z/ A/4-A/8 z/8 z/ =c/4-c/8 z/8 z/ | %191
 e/4-e/8 z/8 z/ z2 [E,E]-[E,E]/-[E,E]/4 z/4 z | [A,,A,]E,A, A,,E,A, | A,,E,A, A,,E,A, | %194
 A,,E,A, A,,E,A, | A,,E,B, A,,E,B, | A,,E,A, A,,E,A, | A,,E,A, A,,E,A, | F,,C,F, ^^F,,C,^^F, | %199
 G,,E,G, G,,D,G, | [C,G,]2- [C,G,]/-[C,G,]/4 z/4 [E,,E,]2- [E,,E,]/-[E,,E,]/4 z/4 | %201
 [A,,,A,,]E,A, A,,E,A, | A,,E,A, A,,E,A, | A,,E,B, A,,E,B, | A,,E,A, A,,E,A, | A,,E,A, A,,E,A, | %206
 A,,/4-A,,/8 z/8 z/ C/4-C/8 z/8 z/ A,/4-A,/8 z/8 z/ E,/4-E,/8 z/8 z/ C,/4-C,/8 z/8 z/ A,,/4-A,,/8 z/8 z/ | %207
 [E,,E,] z2 [E,=D] z2 | A,=CE E,CE | A,=CE E,CE | G,B,E E,B,E | G,B,E E,B,E | A,=CE E,CE | %213
 A,=CE E,CE | G,B,E E,B,E | G,B,E E,B,E | [A,,E,=C] z z4 | [A,,E,=C] z z4 | %218
 [A,=CE]2- [A,CE]/-[A,CE]/4 z/4 [A,CE]2- [A,CE]/-[A,CE]/4 z/4 | [A,=CE]-[A,CE]/-[A,CE]/4 z/4 z4 |] %220

